!!!OTL: Abschied von Insbruck.
!!!ARE: Europa, Mitteleuropa, Deutschland
!!!SCT: A0254A
!!!TXL: @@GMH
!!!YEM: Copyright 1995, estate of Helmut Schaffrath.
**kern	**text
!! Mixed meters:  6/2; 4/2
*M6/2	*
*met(c|)	*
*clefC1	*
*k[b-]	*
*F:ion	*
!LO:TX:a:t=jon. F.	!
1ryy	.
{1f	Js-
=1	=1
2f	-bruck,
2g/	ich
1a	muß
1cc	dich
=2	=2
1b-	laſ-
1a	-ſen,
2r}	.
{2a	ich
=3	=3
2.cc	fahr
4b-	da-
1g	-hin
1a	mein
=4	=4
1f	ſtraſ-
1e	-ſen
2r}	.
{2f	in
=5	=5
*M4/2	*
2g/	frembde
2f	.
2e	land
2f	da-
=6	=6
1g	-hin,
2r}	.
{2g/	mein
=7	=7
*M6/2	*
2f	frewd
2g/	iſt
1a	mir
1cc	ge-
=8	=8
1b-	-nom-
1a	-men,
2r}	.
{2a	die
=9	=9
2.cc	ich
4b-	nit
1g	weiß
1a	be-
=10	=10
1f	-kom-
1e	-men,
2r}	.
{2e	wo
=11	=11
*M4/2	*
2f	ich
2g/	in
1a	e-
=12	=12
2.b-	.
4a	.
4g/	.
4f	.
2.g/	.
=13	=13
.	.
4f	.
1f	.
2e	-lend
=14	=14
*M6/2	*
1f/ll}	bin.
==	==
!!!GTL: Abschieds- und Wanderlieder
!!!AGN: Romanze, Ballade, Lied
!!!ONB: ESAC (Essen Associative Code) Database: ALTDEU
!!!AMT: irregular
!!!AIN: vox
!!!EED: Helmut Schaffrath
!!!EEV: 1.0
!!!RDF**kern: l = terminal long
!!!AMD: Ionian
!!!URL-scan: https://rosdok.uni-rostock.de/mcrviewer/recordIdentifier/rosdok_ppn738218359/iview2/phys_0404.iview2?x=-495.6391625615763&y=1147.4443349796347&scale=0.4629418472063854&rotation=0&layout=singlePageLayout&logicalDiv=log_0010
!!!ENC: Anna Maria Matuszewska
!!!EEV: 2024/11/03
*-	*-
